<?xml version="1.0" encoding="UTF-8"?>
<map version="1.10" tiledversion="1.12.2" orientation="orthogonal" renderorder="right-down" width="27" height="11" tilewidth="40" tileheight="40" infinite="0" nextlayerid="5" nextobjectid="37">
 <editorsettings>
  <export target="hallway.lua" format="lua"/>
 </editorsettings>
 <tileset firstgid="1" source="../tilesets/hallway.tsx"/>
 <layer id="1" name="Tile Layer 1" width="27" height="11">
  <data encoding="csv">
1,2,3,4,5,6,7,8,9,10,11,12,13,14,15,16,17,18,19,20,21,22,23,24,25,26,27,
28,29,30,31,32,33,34,35,36,37,38,39,40,41,42,43,44,45,46,47,48,49,50,51,52,53,54,
55,56,57,58,59,60,61,62,63,64,65,66,67,68,69,70,71,72,73,74,75,76,77,78,79,80,81,
82,83,84,85,86,87,88,89,90,91,92,93,94,95,96,97,98,99,100,101,102,103,104,105,106,107,108,
109,110,111,112,113,114,115,116,117,118,119,120,121,122,123,124,125,126,127,128,129,130,131,132,133,134,135,
136,137,138,139,140,141,142,143,144,145,146,147,148,149,150,151,152,153,154,155,156,157,158,159,160,161,162,
163,164,165,166,167,168,169,170,171,172,173,174,175,176,177,178,179,180,181,182,183,184,185,186,187,188,189,
190,191,192,193,194,195,196,197,198,199,200,201,202,203,204,205,206,207,208,209,210,211,212,213,214,215,216,
217,218,219,220,221,222,223,224,225,226,227,228,229,230,231,232,233,234,235,236,237,238,239,240,241,242,243,
244,245,246,247,248,249,250,251,252,253,254,255,256,257,258,259,260,261,262,263,264,265,266,267,268,269,270,
271,272,273,274,275,276,277,278,279,280,281,282,283,284,285,286,287,288,289,290,291,292,293,294,295,296,297
</data>
 </layer>
 <objectgroup id="2" name="objects_party">
  <object id="4" name="transition" x="568.625" y="219.375" width="64.75" height="36">
   <properties>
    <property name="map" value="room_cesar"/>
    <property name="marker" value="entry"/>
   </properties>
  </object>
  <object id="19" name="interactable" x="265" y="163.5" width="55.5" height="95">
   <properties>
    <property name="text1" value="* It's what they call &quot;you&quot;."/>
   </properties>
  </object>
  <object id="20" name="interactable" x="161" y="134.5" width="82.5" height="122.5">
   <properties>
    <property name="text1" value="* The door is locked."/>
   </properties>
  </object>
 </objectgroup>
 <objectgroup color="#1100ff" id="3" name="markers">
  <object id="1" name="spawn" x="600" y="290">
   <point/>
  </object>
  <object id="2" name="entry" x="880.904" y="221.714">
   <point/>
  </object>
 </objectgroup>
 <objectgroup color="#ff0004" id="4" name="collision">
  <object id="7" x="-3" y="-16" width="1100" height="138"/>
  <object id="10" x="-126" y="320" width="1297" height="126"/>
  <object id="9" x="-96" y="-112" width="216" height="597"/>
  <object id="8" x="960" y="9" width="184" height="491"/>
  <object id="15" x="633.5" y="122" width="205" height="134"/>
  <object id="16" x="918.5" y="120.5" width="45" height="140"/>
  <object id="17" x="114.5" y="120" width="54.5" height="136"/>
  <object id="18" x="235.5" y="117.5" width="332.5" height="138.5"/>
 </objectgroup>
</map>
